X:185
T:Mad Moll of the Cheshire Hunt
R:hp 32
O:england
M:4/4
L:1/8
Q:1/4=113
C:Trad
K:G
(3DEF|: G2 g>f e>dc>B|A>Bc>A B2A2|G2 g>f e>dc>B|d>cA>F G2 (3DEF|
G2 g>f e>dc>B|A>Bc>A B2A2|e2d2 c2B2|1 c>AF>A G2 (3DEF:|2 c>AF>A G4|
|: D>GB>G D>GB>G|D>GB>d c2A2|D>FA>F D>FA>F|D>FA>c B2G2|
D>GB>G D>GB>G|D>GB>d c2A2|e2d2 c2B2|c>AF>A G4 :|

